packages/core/src/svgs/crts.svg

<svg width="24" height="24" viewBox="0 0 24 24" fill="none" xmlns="http://www.w3.org/2000/svg">
<g clip-path="url(#clip0_31_8755)">
<path d="M0 0H24V24H0V0Z" fill="#3699CB"/>
<path d="M11.9999 5.55847C10.1896 5.53887 8.44418 6.23151 7.13992 7.48704L6.85706 7.22562C8.22821 5.87818 10.0776 5.1292 11.9999 5.14276C15.4413 5.14276 18.2399 7.54276 18.8571 10.7142H18.4628C18.1463 9.24085 17.3297 7.92242 16.1517 6.98266C14.9737 6.0429 13.5067 5.5397 11.9999 5.55847ZM5.09992 7.58133C5.23943 7.61757 5.36754 7.68841 5.47242 7.78729C5.57729 7.88617 5.65554 8.00991 5.69992 8.14705C5.80277 8.42133 5.74277 8.72562 5.57135 8.95704C5.43262 8.92017 5.30538 8.84905 5.2013 8.75021C5.09721 8.65136 5.01962 8.52796 4.97563 8.39133C4.86849 8.0999 4.93277 7.80847 5.09992 7.58133ZM4.36277 9.29562C4.64135 9.33847 4.88563 9.5099 5.02277 9.78419C5.14706 10.0585 5.12992 10.3628 4.99277 10.5942C4.8523 10.5682 4.71969 10.5103 4.60523 10.4248C4.49077 10.3393 4.39754 10.2287 4.33277 10.1013C4.19563 9.84419 4.22563 9.53562 4.36277 9.29133V9.29562ZM5.69563 10.0242C5.82333 9.96111 5.96485 9.93118 6.10716 9.93717C6.24946 9.94316 6.38797 9.98488 6.50992 10.0585C6.46706 10.3328 6.29563 10.5942 6.01706 10.7142C5.74277 10.8513 5.43849 10.8213 5.20706 10.6842C5.23094 10.5441 5.28766 10.4116 5.37258 10.2976C5.4575 10.1837 5.5682 10.0914 5.69563 10.0285V10.0242ZM3.88706 11.3099C4.16563 11.2799 4.45706 11.3699 4.65849 11.6013C4.85563 11.8285 4.91563 12.1199 4.83849 12.3942C4.69691 12.4122 4.55307 12.3955 4.41941 12.3455C4.28574 12.2955 4.16628 12.2136 4.07135 12.107C3.97593 12.0005 3.90901 11.8715 3.87679 11.7322C3.84457 11.5928 3.8481 11.4475 3.88706 11.3099ZM5.3742 11.6485C5.60563 11.447 5.89706 11.387 6.17135 11.4642C6.20135 11.7385 6.11135 12.0299 5.87992 12.227C5.65277 12.4285 5.36135 12.4842 5.08277 12.4113C5.05277 12.137 5.14706 11.8456 5.3742 11.6485ZM4.11849 13.4142C4.25129 13.3606 4.39539 13.3412 4.53763 13.3577C4.67987 13.3741 4.81572 13.426 4.93277 13.5085C5.17706 13.6756 5.29706 13.9499 5.3142 14.2242C5.18182 14.2754 5.03898 14.2938 4.89793 14.2778C4.75687 14.2618 4.6218 14.2119 4.50427 14.1323C4.38673 14.0526 4.29024 13.9457 4.22306 13.8207C4.15587 13.6956 4.11999 13.5561 4.11849 13.4142ZM5.63563 13.3713C5.80706 13.127 6.08135 12.9856 6.35563 12.9856C6.40979 13.1181 6.42993 13.262 6.41421 13.4042C6.39849 13.5464 6.34741 13.6825 6.26563 13.7999C6.0942 14.0442 5.81992 14.1813 5.54563 14.1813C5.49147 14.0489 5.47133 13.905 5.48705 13.7627C5.50277 13.6205 5.55385 13.4845 5.63563 13.367V13.3713ZM4.96277 15.3128C5.0812 15.2334 5.21687 15.1834 5.3585 15.167C5.50013 15.1506 5.64362 15.1682 5.77706 15.2185C5.90936 15.2688 6.02713 15.3511 6.11986 15.4581C6.21259 15.565 6.2774 15.6932 6.30849 15.8313C6.08135 15.9813 5.77277 16.0285 5.4942 15.9213C5.36242 15.8714 5.24498 15.7897 5.15229 15.6836C5.05959 15.5774 4.9945 15.4501 4.96277 15.3128ZM6.44992 14.927C6.55706 14.6528 6.80135 14.4556 7.06277 14.3956C7.21277 14.6228 7.25992 14.927 7.15277 15.2056C7.04563 15.4799 6.80135 15.677 6.53992 15.737C6.46094 15.6192 6.41153 15.484 6.39586 15.3431C6.38019 15.2021 6.39874 15.0594 6.44992 14.927ZM5.80706 9.07276C5.84393 8.93404 5.91505 8.8068 6.0139 8.70271C6.11274 8.59863 6.23614 8.52103 6.37277 8.47705C6.5086 8.43145 6.65334 8.41895 6.79497 8.44056C6.9366 8.46218 7.07102 8.5173 7.18706 8.60133C7.14979 8.74054 7.07802 8.8681 6.97839 8.97222C6.87876 9.07635 6.75449 9.15367 6.61706 9.19704C6.32563 9.30419 6.0342 9.2399 5.80277 9.07276H5.80706ZM19.2856 11.9999C19.2845 12.1132 19.239 12.2216 19.1589 12.3017C19.0787 12.3818 18.9704 12.4274 18.8571 12.4285C18.7972 12.4287 18.7383 12.4139 18.6856 12.3856C18.6103 12.3528 18.546 12.2989 18.5004 12.2305C18.4548 12.1621 18.4299 12.0821 18.4285 11.9999C18.4299 11.9177 18.4548 11.8377 18.5004 11.7693C18.546 11.7009 18.6103 11.6471 18.6856 11.6142C18.7339 11.5903 18.7865 11.5765 18.8403 11.5736C18.8941 11.5706 18.9479 11.5786 18.9985 11.597C19.0821 11.6263 19.1546 11.6807 19.2061 11.7529C19.2575 11.825 19.2853 11.9113 19.2856 11.9999ZM18.8571 13.2856H18.4756C18.1871 14.7398 17.4031 16.0489 16.2575 16.9898C15.1118 17.9307 13.6753 18.4452 12.1928 18.4456C10.6499 18.4456 9.11992 17.9399 7.95849 16.9328L7.7142 17.207C8.62098 17.9921 9.71923 18.5234 10.8976 18.7471C12.076 18.9708 13.2925 18.8789 14.4239 18.4807C15.5553 18.0826 16.5613 17.3923 17.3398 16.4799C18.1184 15.5676 18.6418 14.4655 18.8571 13.2856ZM12.2142 16.7142C13.3355 16.7147 14.4235 16.3328 15.2986 15.6315C16.1736 14.9303 16.7833 13.9516 17.0271 12.857H15.2442C14.9915 13.5719 14.4941 14.1744 13.8401 14.5581C13.1861 14.9417 12.4175 15.0818 11.6702 14.9536C10.9229 14.8254 10.245 14.4371 9.75623 13.8574C9.26751 13.2777 8.99946 12.5439 8.99946 11.7856C8.99946 11.0274 9.26751 10.2936 9.75623 9.71384C10.245 9.13412 10.9229 8.74584 11.6702 8.61762C12.4175 8.4894 13.1861 8.6295 13.8401 9.01315C14.4941 9.39681 14.9915 9.99932 15.2442 10.7142H17.0271C16.8252 9.80766 16.3712 8.97662 15.7176 8.31685C15.0639 7.65708 14.2371 7.19543 13.3325 6.9851C12.4279 6.77477 11.4823 6.82431 10.6046 7.12803C9.72694 7.43175 8.95294 7.97727 8.37181 8.70174C7.79069 9.42621 7.42608 10.3001 7.32003 11.2228C7.21397 12.1455 7.37077 13.0793 7.77236 13.9167C8.17395 14.7542 8.80399 15.4611 9.58986 15.956C10.3757 16.451 11.2855 16.7138 12.2142 16.7142Z" fill="white"/>
</g>
<defs>
<clipPath id="clip0_31_8755">
<rect width="24" height="24" fill="white"/>
</clipPath>
</defs>
</svg>

<svg xmlns="http://www.w3.org/2000/svg" width="24" height="24" fill="none" viewBox="0 0 24 24"><g clip-path="url(#a)"><path fill="#3699CB" d="M0 0h24v24H0z"/><path fill="#fff" d="M12 5.558a6.9 6.9 0 0 0-4.86 1.929l-.283-.261A7.26 7.26 0 0 1 12 5.143c3.441 0 6.24 2.4 6.857 5.571h-.394A6.53 6.53 0 0 0 12 5.558M5.1 7.581a.86.86 0 0 1 .6.566.86.86 0 0 1-.129.81.86.86 0 0 1-.595-.566.85.85 0 0 1 .124-.81m-.737 1.715a.88.88 0 0 1 .66.488.88.88 0 0 1-.03.81.93.93 0 0 1-.66-.493c-.137-.257-.107-.565.03-.81zm1.333.728a.85.85 0 0 1 .814.035.85.85 0 0 1-.493.655.85.85 0 0 1-.81-.03.9.9 0 0 1 .489-.655zM3.887 11.31c.279-.03.57.06.771.291a.85.85 0 0 1 .18.793.88.88 0 0 1-.767-.287.85.85 0 0 1-.184-.797m1.487.338a.85.85 0 0 1 .797-.184.87.87 0 0 1-.291.763.85.85 0 0 1-.797.184.88.88 0 0 1 .291-.762m-1.256 1.766a.86.86 0 0 1 .815.095.92.92 0 0 1 .381.715.88.88 0 0 1-1.196-.81m1.518-.043a.9.9 0 0 1 .72-.385.86.86 0 0 1-.09.814.89.89 0 0 1-.72.381.86.86 0 0 1 .09-.814zm-.673 1.942a.9.9 0 0 1 .814-.095.86.86 0 0 1 .531.613.9.9 0 0 1-.814.09.86.86 0 0 1-.531-.608m1.487-.386a.88.88 0 0 1 .613-.531c.15.227.197.531.09.81a.88.88 0 0 1-.613.531.88.88 0 0 1-.09-.81m-.643-5.854a.86.86 0 0 1 .566-.596.9.9 0 0 1 .814.124.86.86 0 0 1-.57.596.86.86 0 0 1-.814-.124zM19.286 12a.433.433 0 0 1-.429.428.36.36 0 0 1-.171-.042.43.43 0 0 1-.258-.386.43.43 0 0 1 .258-.386.4.4 0 0 1 .313-.017.43.43 0 0 1 .287.403m-.429 1.286h-.381a6.41 6.41 0 0 1-6.283 5.16c-1.543 0-3.073-.506-4.235-1.513l-.244.274a6.801 6.801 0 0 0 11.143-3.921m-6.643 3.428a4.93 4.93 0 0 0 4.813-3.857h-1.783a3.214 3.214 0 1 1 0-2.143h1.783a4.929 4.929 0 1 0-4.813 6"/></g><defs><clipPath id="a"><path fill="#fff" d="M0 0h24v24H0z"/></clipPath></defs></svg>
